images/icons/icons.svg

<svg aria-hidden="true" style="position: absolute; width: 0; height: 0; overflow: hidden;" version="1.1" xmlns="http://www.w3.org/2000/svg" xmlns:xlink="http://www.w3.org/1999/xlink">
<defs>
<symbol id="camera" viewBox="0 0 32 32">
<path d="M21 17c0 1.326-0.527 2.598-1.464 3.536s-2.209 1.464-3.536 1.464-2.598-0.527-3.536-1.464c-0.938-0.938-1.464-2.21-1.464-3.536s0.527-2.598 1.464-3.536c0.938-0.938 2.209-1.464 3.536-1.464s2.598 0.527 3.536 1.464c0.938 0.938 1.464 2.209 1.464 3.536z"></path>
<path d="M4 8c-1.061 0-2.078 0.421-2.828 1.172s-1.172 1.768-1.172 2.828v12c0 1.061 0.421 2.078 1.172 2.828s1.768 1.172 2.828 1.172h24c1.061 0 2.078-0.421 2.828-1.172s1.172-1.768 1.172-2.828v-12c0-1.061-0.421-2.078-1.172-2.828s-1.768-1.172-2.828-1.172h-2.344c-1.061-0-2.078-0.422-2.828-1.172l-1.656-1.656c-0.75-0.75-1.767-1.172-2.828-1.172h-4.688c-1.061 0-2.078 0.422-2.828 1.172l-1.656 1.656c-0.75 0.75-1.767 1.172-2.828 1.172h-2.344zM5 12c-0.265 0-0.52-0.105-0.707-0.293s-0.293-0.442-0.293-0.707c0-0.265 0.105-0.52 0.293-0.707s0.442-0.293 0.707-0.293c0.265 0 0.52 0.105 0.707 0.293s0.293 0.442 0.293 0.707c0 0.265-0.105 0.52-0.293 0.707s-0.442 0.293-0.707 0.293zM23 17c0 1.857-0.737 3.637-2.050 4.95s-3.093 2.050-4.95 2.050c-1.857 0-3.637-0.737-4.95-2.050s-2.050-3.093-2.050-4.95c0-1.857 0.738-3.637 2.050-4.95s3.093-2.050 4.95-2.050c1.857 0 3.637 0.738 4.95 2.050s2.050 3.093 2.050 4.95z"></path>
</symbol>
<symbol id="logo" viewBox="0 0 127 20">
<path d="M10.334 11.0753H3.33278V17.6928H0V2H11.3411V4.74151H3.33278V8.31019H10.334V11.0753Z" fill="white" />
  <path d="M17.0901 15.4239C18.9842 15.4239 19.9433 14.2422 19.9433 11.8789C19.9433 9.51551 18.9842 8.35746 17.0901 8.35746C15.1959 8.35746 14.2368 9.51551 14.2368 11.8789C14.2368 14.2422 15.1959 15.4239 17.0901 15.4239ZM17.0901 18C13.2777 18 11.0239 15.4948 11.0239 11.8789C11.0239 8.19202 13.3497 5.75776 17.0901 5.75776C20.7825 5.75776 23.0843 8.16839 23.0843 11.8789C23.0843 15.5657 20.7585 18 17.0901 18Z" fill="white" />
  <path d="M31.6935 13.486H34.8345C34.4988 16.1802 32.2689 18 29.4157 18C26.2028 18 23.9969 15.8966 23.9969 11.7371C23.9969 7.57755 26.2028 5.75776 29.5116 5.75776C32.5806 5.75776 34.6666 7.48301 34.8584 10.2245H31.7175C31.5496 9.0192 30.6625 8.31019 29.4876 8.31019C28.1689 8.31019 27.0899 9.13737 27.0899 11.6662C27.0899 14.195 28.1689 15.4239 29.3917 15.4239C30.6145 15.4239 31.5736 14.7386 31.6935 13.486Z" fill="white" />
  <path d="M46.378 17.6928H43.4288V16.062C42.6136 17.3855 41.3908 18 39.7604 18C37.4107 18 35.7562 16.2747 35.7562 13.7223V6.06499H38.8732V13.2496C38.8732 14.7149 39.5446 15.4239 40.8633 15.4239C42.4458 15.4239 43.285 14.3131 43.285 12.777V6.06499H46.378V17.6928Z" fill="white" />
  <path d="M57.8389 9.58641H54.8418C54.674 8.45199 54.0506 8.05022 52.636 8.05022C51.4611 8.05022 50.7897 8.33383 50.7897 9.0192C50.7897 9.70458 51.4371 9.98818 52.7079 10.3427C54.0506 10.7208 55.3214 10.9808 56.2325 11.3353C57.4793 11.8316 58.1746 12.6352 58.1746 14.1477C58.1746 16.5583 56.3763 18 53.0196 18C49.3991 18 47.385 16.322 47.3371 13.9586H50.55C50.55 15.0458 51.4851 15.6839 52.9956 15.6839C54.0986 15.6839 55.0816 15.353 55.0816 14.4786C55.0816 13.6514 54.1945 13.3914 53.1874 13.1551C51.1973 12.6824 50.0944 12.3516 49.2552 11.8316C48.1523 11.1462 47.7687 10.2482 47.7687 9.20827C47.7687 7.24668 49.1353 5.75776 52.7319 5.75776C56.1366 5.75776 57.6711 7.08124 57.8389 9.58641Z" fill="white" />
  <path d="M62.3149 17.6928H58.9822V14.5022H62.3149V17.6928Z" fill="white" />
  <path d="M73.7884 11.0753H66.7872V17.6928H63.4544V2H74.7954V4.74151H66.7872V8.31019H73.7884V11.0753Z" fill="white" />
  <path d="M78.2805 17.6928H75.1635V6.06499H78.0887V7.45938C79.1197 5.89956 80.3186 5.75776 81.5893 5.75776H81.9969V8.90103C81.7092 8.85377 81.4215 8.83013 81.1338 8.83013C79.2156 8.83013 78.2805 9.77548 78.2805 11.6425V17.6928Z" fill="white" />
  <path d="M89.4268 13.2733L89.4508 11.997C89.1391 12.3043 88.5876 12.4697 87.4367 12.6824C85.6624 13.0133 85.087 13.5096 85.087 14.5022C85.087 15.3767 85.6145 15.8021 86.5975 15.8021C88.204 15.8021 89.4028 14.644 89.4268 13.2733ZM92.5677 17.6928H89.6665C89.5706 17.4092 89.4987 17.0074 89.4747 16.6529C88.7314 17.4564 87.4846 18 85.9022 18C83.2168 18 81.97 16.7001 81.97 14.8095C81.97 11.4535 84.2478 11.0753 87.3887 10.6499C88.9472 10.4372 89.3788 10.13 89.3788 9.32644C89.3788 8.57016 88.6116 8.12112 87.3887 8.12112C85.9741 8.12112 85.3987 8.8065 85.2548 9.84638H82.3536C82.4015 7.43575 83.7442 5.75776 87.5326 5.75776C91.273 5.75776 92.5677 7.41211 92.5677 10.3427V17.6928Z" fill="white" />
  <path d="M110.822 17.6928H107.777V10.6499C107.777 9.25554 107.034 8.26292 105.931 8.26292C104.78 8.26292 103.941 9.32644 103.941 10.7445V17.6928H100.824V10.6972C100.824 8.83013 100.32 8.35746 98.9535 8.35746C97.7067 8.35746 97.0593 9.11374 97.0593 10.6263V17.6928H93.9423V6.06499H96.8675V7.76662C97.6587 6.23043 98.7616 5.75776 100.32 5.75776C101.927 5.75776 102.694 6.25406 103.605 7.60118C104.252 6.32496 105.307 5.75776 106.794 5.75776C109.168 5.75776 110.822 7.45938 110.822 9.63368V17.6928Z" fill="white" />
  <path d="M114.968 10.7445H119.787C119.739 9.0192 118.588 8.19202 117.365 8.19202C116.119 8.19202 115.088 9.13737 114.968 10.7445ZM123 12.6824H114.872C114.968 14.4313 115.975 15.5657 117.509 15.5657C118.516 15.5657 119.403 15.0694 119.619 14.2659H122.832C122.113 16.6529 120.171 18 117.653 18C113.721 18 111.755 15.873 111.755 11.6662C111.755 8.07386 113.841 5.75776 117.461 5.75776C121.082 5.75776 123 8.07385 123 12.6824Z" fill="white" />
</symbol>
<symbol id="burger-icon" viewBox="0 0 24 24">
  <path d="M3.59961 6.00078C3.59961 5.68252 3.72604 5.3773 3.95108 5.15225C4.17612 4.92721 4.48135 4.80078 4.79961 4.80078H19.1996C19.5179 4.80078 19.8231 4.92721 20.0481 5.15225C20.2732 5.3773 20.3996 5.68252 20.3996 6.00078C20.3996 6.31904 20.2732 6.62427 20.0481 6.84931C19.8231 7.07435 19.5179 7.20078 19.1996 7.20078H4.79961C4.48135 7.20078 4.17612 7.07435 3.95108 6.84931C3.72604 6.62427 3.59961 6.31904 3.59961 6.00078Z" />
  <path d="M3.59961 12.0008C3.59961 11.6825 3.72604 11.3773 3.95108 11.1523C4.17612 10.9272 4.48135 10.8008 4.79961 10.8008H19.1996C19.5179 10.8008 19.8231 10.9272 20.0481 11.1523C20.2732 11.3773 20.3996 11.6825 20.3996 12.0008C20.3996 12.319 20.2732 12.6243 20.0481 12.8493C19.8231 13.0744 19.5179 13.2008 19.1996 13.2008H4.79961C4.48135 13.2008 4.17612 13.0744 3.95108 12.8493C3.72604 12.6243 3.59961 12.319 3.59961 12.0008Z" />
  <path d="M3.59961 18.0008C3.59961 17.6825 3.72604 17.3773 3.95108 17.1523C4.17612 16.9272 4.48135 16.8008 4.79961 16.8008H19.1996C19.5179 16.8008 19.8231 16.9272 20.0481 17.1523C20.2732 17.3773 20.3996 17.6825 20.3996 18.0008C20.3996 18.319 20.2732 18.6243 20.0481 18.8493C19.8231 19.0744 19.5179 19.2008 19.1996 19.2008H4.79961C4.48135 19.2008 4.17612 19.0744 3.95108 18.8493C3.72604 18.6243 3.59961 18.319 3.59961 18.0008Z" />
</symbol>
<symbol id="student-arrow" viewBox="0 0 18 9">
  <path fill-rule="evenodd" clip-rule="evenodd" d="M12.5 0L18 4.33013L12.5 8.66025V5.08013L0 5.08013L0 3.58013L12.5 3.58013V0Z"/>
</symbol>
<symbol id="star" viewBox="0 0 20 20">
  <path d="M9.08333 0.75L11.6583 5.96667L17.4167 6.80833L13.25 10.8667L14.2333 16.6L9.08333 13.8917L3.93333 16.6L4.91667 10.8667L0.75 6.80833L6.50833 5.96667L9.08333 0.75Z" stroke="#121212" stroke-width="1.5" stroke-linecap="round" stroke-linejoin="round" />
</symbol>
<symbol id="courses-arrow" viewBox="0 0 20 20" color="currentColor" stroke-width="1.3" stroke="currentColor" stroke-linecap="round" stroke-linejoin="round">
            <path d="M5 15 15 5" />
  <path d="M8.3333 5h6.6666v6.6667" />
</symbol>
</defs>
</svg>

<svg xmlns="http://www.w3.org/2000/svg" aria-hidden="true" style="position:absolute;width:0;height:0;overflow:hidden">
  <defs>
    <symbol id="camera" viewBox="0 0 32 32">
      <path d="M21 17a4.997 4.997 0 0 1-5 5 5 5 0 0 1-5-5 4.998 4.998 0 0 1 8.536-3.536A5 5 0 0 1 21 17"/>
      <path d="M4 8a4.003 4.003 0 0 0-4 4v12a4.003 4.003 0 0 0 4 4h24a4.003 4.003 0 0 0 4-4V12a4.003 4.003 0 0 0-4-4h-2.344a4 4 0 0 1-2.828-1.172l-1.656-1.656A4 4 0 0 0 18.344 4h-4.688a4 4 0 0 0-2.828 1.172L9.172 6.828A4 4 0 0 1 6.344 8zm1 4a.997.997 0 0 1-1-1 .997.997 0 0 1 1-1 .997.997 0 0 1 1 1 .997.997 0 0 1-1 1m18 5a6.999 6.999 0 1 1-14 0 7.003 7.003 0 0 1 7-7 7.003 7.003 0 0 1 7 7"/>
    </symbol>
    <symbol id="logo" viewBox="0 0 127 20">
      <path fill="#fff" d="M10.334 11.075H3.333v6.618H0V2h11.341v2.742H3.333V8.31h7.001zM17.09 15.424c1.894 0 2.853-1.182 2.853-3.545s-.959-3.522-2.853-3.522-2.853 1.159-2.853 3.522.959 3.545 2.853 3.545m0 2.576c-3.812 0-6.066-2.505-6.066-6.121 0-3.687 2.326-6.121 6.066-6.121 3.692 0 5.994 2.41 5.994 6.12 0 3.688-2.325 6.122-5.994 6.122M31.694 13.486h3.14C34.5 16.18 32.27 18 29.417 18c-3.213 0-5.42-2.103-5.42-6.263s2.207-5.98 5.516-5.98c3.069 0 5.155 1.726 5.346 4.468h-3.14c-.168-1.206-1.055-1.915-2.23-1.915-1.32 0-2.398.827-2.398 3.356s1.079 3.758 2.302 3.758 2.182-.685 2.302-1.938M46.378 17.693h-2.95v-1.631C42.615 17.385 41.392 18 39.76 18c-2.35 0-4.004-1.725-4.004-4.278V6.065h3.117v7.185c0 1.465.672 2.174 1.99 2.174 1.583 0 2.422-1.11 2.422-2.647V6.065h3.093zM57.839 9.586h-2.997c-.168-1.134-.791-1.536-2.206-1.536-1.175 0-1.846.284-1.846.97s.647.968 1.918 1.323c1.343.378 2.613.638 3.525.992 1.246.497 1.942 1.3 1.942 2.813 0 2.41-1.799 3.852-5.155 3.852-3.62 0-5.635-1.678-5.683-4.041h3.213c0 1.087.935 1.725 2.446 1.725 1.103 0 2.086-.331 2.086-1.205 0-.828-.888-1.088-1.895-1.324-1.99-.473-3.093-.803-3.932-1.323-1.103-.686-1.486-1.584-1.486-2.624 0-1.961 1.366-3.45 4.963-3.45 3.405 0 4.94 1.323 5.107 3.828M62.315 17.693h-3.333v-3.19h3.333zM73.788 11.075h-7v6.618h-3.334V2h11.341v2.742h-8.008V8.31h7.001zM78.28 17.693h-3.117V6.065h2.926v1.394c1.03-1.56 2.23-1.701 3.5-1.701h.408V8.9a5.3 5.3 0 0 0-.863-.07c-1.918 0-2.853.944-2.853 2.812zM89.427 13.273l.024-1.276c-.312.307-.863.473-2.014.685-1.775.331-2.35.828-2.35 1.82 0 .875.528 1.3 1.51 1.3 1.607 0 2.806-1.158 2.83-2.529m3.14 4.42h-2.9a4.5 4.5 0 0 1-.192-1.04c-.744.803-1.99 1.347-3.573 1.347-2.685 0-3.932-1.3-3.932-3.19 0-3.357 2.278-3.735 5.419-4.16 1.558-.213 1.99-.52 1.99-1.324 0-.756-.767-1.205-1.99-1.205-1.415 0-1.99.685-2.134 1.725h-2.901c.047-2.41 1.39-4.088 5.179-4.088 3.74 0 5.035 1.654 5.035 4.585zM110.822 17.693h-3.045V10.65c0-1.394-.743-2.387-1.846-2.387-1.151 0-1.99 1.063-1.99 2.482v6.948h-3.117v-6.996c0-1.867-.504-2.34-1.87-2.34-1.247 0-1.895.757-1.895 2.27v7.066h-3.117V6.065h2.926v1.702c.79-1.537 1.894-2.01 3.452-2.01 1.607 0 2.374.497 3.285 1.844.647-1.276 1.702-1.843 3.189-1.843 2.374 0 4.028 1.701 4.028 3.876zM114.968 10.745h4.819c-.048-1.726-1.199-2.553-2.422-2.553-1.246 0-2.277.945-2.397 2.553M123 12.682h-8.128c.096 1.75 1.103 2.884 2.637 2.884 1.007 0 1.894-.497 2.11-1.3h3.213c-.719 2.387-2.661 3.734-5.179 3.734-3.932 0-5.898-2.127-5.898-6.334 0-3.592 2.086-5.908 5.706-5.908S123 8.074 123 12.682"/>
    </symbol>
    <symbol id="burger-icon" viewBox="0 0 24 24">
      <path d="M3.6 6a1.2 1.2 0 0 1 1.2-1.2h14.4a1.2 1.2 0 1 1 0 2.4H4.8A1.2 1.2 0 0 1 3.6 6M3.6 12a1.2 1.2 0 0 1 1.2-1.2h14.4a1.2 1.2 0 1 1 0 2.4H4.8A1.2 1.2 0 0 1 3.6 12M3.6 18a1.2 1.2 0 0 1 1.2-1.2h14.4a1.2 1.2 0 1 1 0 2.4H4.8A1.2 1.2 0 0 1 3.6 18"/>
    </symbol>
    <symbol id="student-arrow" viewBox="0 0 18 9">
      <path fill-rule="evenodd" d="M12.5 0 18 4.33l-5.5 4.33V5.08H0v-1.5h12.5z" clip-rule="evenodd"/>
    </symbol>
    <symbol id="star" viewBox="0 0 20 20">
      <path stroke-linecap="round" stroke-linejoin="round" stroke-width="1.5" d="m9.083.75 2.575 5.217 5.759.841-4.167 4.059.983 5.733-5.15-2.708-5.15 2.708.984-5.733L.75 6.808l5.758-.841z"/>
    </symbol>
    <symbol id="courses-arrow" stroke-linecap="round" stroke-linejoin="round" stroke-width="1.3" viewBox="0 0 20 20">
      <path d="M5 15 15 5M8.333 5H15v6.667"/>
    </symbol>
  </defs>
</svg>
